X: 305725
M: 6/8
L: 1/8
K: C
c/d/ |\
e3- efg | a2g gfe | d3 ded | cBA Bcd |\
e3- eef | a2g gfe | d3 ded | c3- c2 H|]
d3 dcd | f2_e edB | ^f3 fga | gBd GBc |\
d3 dcd | f2_e edc | ^f3 fga | g3- g^f"^D.C."=f |]
K: G
!p!DGA |\



